X:1
T: Flockton's Hornpipe
C:
R:Reel
Q: 232
K:A
M:4/4
L:1/8
|:E2|Ee cA Ed BG|Ee cA Ed BG|Ff Ee Dd Cc|Bd cB AG FE|
Ee cA Ed BG|Ee cA Ed BA|GA Bc de fg|ga ec A2:|
|:((3AGA)|BE cE dE cE|Bc BA AG FE|Ff Ee Dd Cc|Bd cB AG FE|
Ee cA Ed BG|Ee cA Ed BA|GA Bc de fg|ga ec A2:|
